Newaita-dark/emblems/48/emblem-favorite.svg

<svg height="48" viewBox="0 0 48 48" width="48" xmlns="http://www.w3.org/2000/svg"><path d="m169.775454-146.589866c-59.327668 1.333206-106.281517 49.578599-106.281517 108.947929 0 154.776886 166.692415 214.312868 190.523472 273.807186 23.789395-59.494318 190.48181-119.0303 190.48181-273.807186 0-59.36933-45.620643-111.822655-104.948311-110.697762-43.204208.833254-74.951176 32.580222-85.533499 74.909513-10.582323-42.329291-42.370954-74.076259-84.241955-73.15968zm0 0" fill="#f44336" stroke="#424242" stroke-linecap="round" stroke-linejoin="round" stroke-width="82" transform="matrix(.093759 0 0 .093759 0 20.158175)"/><path d="m15.917969 6.414062c-5.5625.125-9.964844 4.648438-9.964844 10.214844 0 14.511719 15.628906 20.09375 17.863281 25.671875 2.230469-5.578125 17.859375-11.160156 17.859375-25.671875 0-5.566406-4.277343-10.484375-9.839843-10.378906-4.050782.078125-7.027344 3.054688-8.019532 7.023438-.992187-3.96875-3.972656-6.945313-7.898437-6.859376zm0 0" fill="#fafafa"/></svg>

<?xml version="1.0" encoding="UTF-8"?>
<svg xmlns="http://www.w3.org/2000/svg" xmlns:xlink="http://www.w3.org/1999/xlink" width="48px" height="48px" viewBox="0 0 48 48" version="1.1">
<g id="surface1">
<path style="fill-rule:nonzero;fill:rgb(95.686275%,26.274511%,21.176471%);fill-opacity:1;stroke-width:82;stroke-linecap:round;stroke-linejoin:round;stroke:rgb(25.882354%,25.882354%,25.882354%);stroke-opacity:1;stroke-miterlimit:4;" d="M 169.775454 -146.589866 C 110.447786 -145.25666 63.493937 -97.011267 63.493937 -37.641937 C 63.493937 117.134949 230.186352 176.670931 254.017409 236.165249 C 277.806804 176.670931 444.499219 117.134949 444.499219 -37.641937 C 444.499219 -97.011267 398.878576 -149.464592 339.550908 -148.339699 C 296.3467 -147.506445 264.599732 -115.759477 254.017409 -73.430186 C 243.435086 -115.759477 211.646455 -147.506445 169.775454 -146.589866 Z M 169.775454 -146.589866 " transform="matrix(0.093759,0,0,0.093759,0,20.158175)"/>
<path style=" stroke:none;fill-rule:nonzero;fill:rgb(98.039216%,98.039216%,98.039216%);fill-opacity:1;" d="M 15.917969 6.414062 C 10.355469 6.539062 5.953125 11.0625 5.953125 16.628906 C 5.953125 31.140625 21.582031 36.722656 23.816406 42.300781 C 26.046875 36.722656 41.675781 31.140625 41.675781 16.628906 C 41.675781 11.0625 37.398438 6.144531 31.835938 6.25 C 27.785156 6.328125 24.808594 9.304688 23.816406 13.273438 C 22.824219 9.304688 19.84375 6.328125 15.917969 6.414062 Z M 15.917969 6.414062 "/>
</g>
</svg>
